!!!COM: Bach, Johann Sebastian
!!!OPR: Joh. Seb. Bachs vierstimmige Choralgesänge
!!!XEN: Four-part Chorales
!!!OTL: 35. Das alte Jahr vergangen ist
!!!SCT: BWV 288
!!!SCA: Thematisch-systematisches Verzeichnis der musikalischen Werke Johann Sebastian Bach: Bach-Werke-Verzeichnis (Schmieder)
!!!YOR: Bach Gesellschaft Edition xxxix
!!!ENC: Steven Rasmussen
!!!CDT: 1685/3//-1750/7/28/
!!!OCY: Deutschland
!!!YEC: Copyright (c) 1994, 2000 Center for Computer Assisted Research in the Humanities
!!!YEM: Rights to all derivative editions reserved
!!!YEN: United States of America
**kern	**silbe	**kern	**silbe	**kern	**silbe	**kern	**silbe
*I:[BASSO]	*I:[BASSO]	*I:[TENORE]	*I:[TENORE]	*I:[ALTO]	*I:[ALTO]	*I:[SOPRANO]	*I:[SOPRANO]
*clefF4	*	*clefGv2	*	*clefG2	*	*clefG2	*
*k[]	*	*k[]	*	*k[]	*	*k[]	*
*a:	*	*a:	*	*a:	*	*a:	*
*M4/4	*	*M4/4	*	*M4/4	*	*M4/4	*
8AL	.	4c#	.	4e	.	4a	Das
8GJ	.	.	.	.	.	.	.
=1	=1	=1	=1	=1	=1	=1	=1
8FL	.	8dL	.	4f	.	4a	al-
8DJ	.	8cJ	.	.	.	.	.
4G	.	8B-L	.	8eL	.	8gL	-te
.	.	8GJ	.	8dJ	.	8fJ	.
8GL	.	4A	.	4c#	.	4e	Jahr
8EJ	.	.	.	.	.	.	.
8FL	.	8AL	.	4d	.	4a	ver-
8DJ	.	8FJ	.	.	.	.	.
=2	=2	=2	=2	=2	=2	=2	=2
8BB-L	.	8DL	.	8dL	.	4g	-gan-
8GGJ	.	8B-J	.	8eJ	.	.	.
4AA	.	4A	.	8dL	.	4e	-gen
.	.	.	.	8c#J	.	.	.
4D;	.	4A;	.	4d;	.	4f;	ist,
8DL	.	4F	.	4d	.	4a	wir
8CJ	.	.	.	.	.	.	.
=3	=3	=3	=3	=3	=3	=3	=3
4BB-	.	8FL	dan-	[2d	dan-	4a	dan-
.	.	8DJ	.	.	.	.	.
4BBn	.	4G	-ken	.	.	8gL	-ken
.	.	.	.	.	.	8fJ	.
[2C	dir,	8GL	dir,	8d]	.	4e	dir,
.	.	8EJ	.	8c	-ken	.	.
.	.	8FL	Herr	8c	dir,	4a	Herr
.	.	8AJ	.	8f	Herr	.	.
=4	=4	=4	=4	=4	=4	=4	=4
8C]	.	8cL	.	8fL	Je-	4g	Je-
8E	Herr	8B-J	.	16eL	.	.	.
.	.	.	.	16dJJ	.	.	.
8C#	Je-	8B-L	.	8eL	-su	4e	-su
8AA	-su	8AJ	.	8c#J	.	.	.
4D;	.	4A;	.	4d;	.	4f;	Christ,
4d	.	4d	.	4f	.	4a	dass
=5	=5	=5	=5	=5	=5	=5	=5
4G#	.	4d	.	8fL	.	4b	du
.	.	.	.	8eJ	.	.	.
4Gn	.	4A	.	8eL	.	4cc#	uns
.	.	.	.	8dJ	.	.	.
4F#	.	8AL	.	4d	.	4dd	in
.	.	8G#J	.	.	.	.	.
4Fn	.	4A	.	8cL	.	8aL	so
.	.	.	.	8dJ	.	8bJ	.
=6	=6	=6	=6	=6	=6	=6	=6
8EL	.	4A	.	4.e	.	4cc	gro-
8DJ	.	.	.	.	.	.	.
4E	.	4G#	.	.	.	4b	-sser
.	.	.	.	8d	.	.	.
4AA;	.	4E;	.	4c#;	.	4a;	G'fahr
4D	.	4F	.	4d	.	4b	be-
=7	=7	=7	=7	=7	=7	=7	=7
4C	.	8GL	.	4e	.	4cc	-hÃ¼-
.	.	8EJ	.	.	.	.	.
8DL	.	8FL	.	4d	.	4b	-tet
8EJ	.	8GJ	.	.	.	.	.
4F	.	8AL	.	8cL	.	4a	hast
.	.	8B-J	.	8dJ	.	.	.
4F#	.	4c	.	4e-	.	4a	lang'
=8	=8	=8	=8	=8	=8	=8	=8
4G	.	8B-L	.	4d	.	8gL	Zeit
.	.	8AJ	.	.	.	8fJ	.
4C#	.	8B-L	.	4e	.	4e	und
.	.	8AJ	.	.	.	.	.
4D;	.	4A;	.	4d;	.	4f;	Jahr;
4BB	.	4G	.	8dL	.	4g	dass
.	.	.	.	16eL	.	.	.
.	.	.	.	16fJJ	.	.	.
=9	=9	=9	=9	=9	=9	=9	=9
4.C	.	8cL	.	4e	.	4g	du
.	.	8EJ	.	.	.	.	.
.	.	8F#L	.	8dL	.	4a	uns
8AA	.	16GL	.	8cJ	.	.	.
.	.	16AJJ	.	.	.	.	.
4BB	.	4D	.	4d	.	8gL	in
.	.	.	.	.	.	8fJ	.
4C#	.	4A	.	4e	.	4e	so
=10	=10	=10	=10	=10	=10	=10	=10
8DL	.	4A	.	8eL	.	4f	gro-
8EJ	.	.	.	8c#J	.	.	.
8FL	.	4A	.	4d	.	4f	-sser
8GJ	.	.	.	.	.	.	.
4A;	.	4A;	.	4c#;	.	4e;	G'fahr
4D#	.	4A	.	4f#	.	4b	be-
=11	=11	=11	=11	=11	=11	=11	=11
4.E	.	8G#L	.	8eL	.	4cc	-hÃ¼-
.	.	8AJ	.	8f#J	.	.	.
.	.	4B	.	8g#L	.	4b	-tet
8D	.	.	.	16aL	.	.	.
.	.	.	.	16bJJ	.	.	.
8CL	.	8cL	.	4.e	.	4a	hast
8BBJ	.	8dJ	.	.	.	.	.
8AAL	.	8cL	.	.	.	4e	lang'
8GGJ	.	8BJ	.	8e	.	.	.
=12	=12	=12	=12	=12	=12	=12	=12
4FF#	.	8cL	.	4e	.	4a	Zeit
.	.	8AJ	.	.	.	.	.
4BB	.	8F#L	.	4d#	.	4a	und
.	.	8BJ	.	.	.	.	.
4E;	.	4B;	.	4e;	.	4g#;	Jahr.
==|!	==|!	==|!	==|!	==|!	==|!	==|!	==|!
*-	*-	*-	*-	*-	*-	*-	*-
!!!RWG: Key is interpreted using the Humdrum key tool.
!!!URL-pdf: https://s9.imslp.org/files/imglnks/usimg/6/6b/IMSLP24489-PMLP09471-CCARH_Bach_Chorales.pdf#page=24 Musedata edition
!!!URL-pdf: https://s9.imslp.org/files/imglnks/usimg/7/7a/IMSLP04155-Bach_-_BGA_253-438.pdf#page=20 	Bach-Gesellschaft Ausgabe, Band 39 (pp.175-276) Leipzig: Breitkopf und Härtel, 1892. Plate B.W. XXXIX.
!!!END: 1994/05/16
!!!EMD: Converted from MuseData to Humdrum Dec 19, 2000, by Andreas Kornstaedt using muse2kern.
!!!EED: Craig Stuart Sapp
!!!EEV: 2024/03/31
!!!filter-keyboard: satb2gs
!!!title: @{OTL} (@{SCT})
